X:560
T:The Tailor's Twist
M:C|
L:1/8
K:D
FE|DA,FD AFdA|Bged cbag|fedc Bged|(3cdc (3BcB (3ABA (3GFE|
DA,FD AFdA|Bged cbag|fedc Bgec|d2 dc d2 :|
|: fg|agaf dfaf|bagf eAce|gfge cdef|(3gag (3fgf egfe|
dfec dDFA|Bged cbag|fedc Bgec|d2 dc d2 :|
